public/assets/user.svg

<svg width="15" height="16" viewBox="0 0 15 16" fill="none" xmlns="http://www.w3.org/2000/svg">
<path d="M7.72701 0C4.92338 0 2.6361 2.28727 2.6361 5.09091C2.6361 6.84364 3.53065 8.4 4.88628 9.31855C2.2921 10.4313 0.454285 13.0058 0.454285 16H1.90883C1.90883 12.7782 4.50519 10.1818 7.72701 10.1818C10.9488 10.1818 13.5452 12.7782 13.5452 16H14.9997C14.9997 13.0058 13.1619 10.432 10.5677 9.31782C11.2596 8.85075 11.8265 8.22123 12.2188 7.48436C12.6111 6.74748 12.8168 5.92569 12.8179 5.09091C12.8179 2.28727 10.5306 0 7.72701 0ZM7.72701 1.45455C9.74374 1.45455 11.3634 3.07418 11.3634 5.09091C11.3634 7.10764 9.74374 8.72727 7.72701 8.72727C5.71028 8.72727 4.09065 7.10764 4.09065 5.09091C4.09065 3.07418 5.71028 1.45455 7.72701 1.45455Z" fill="white"/>
</svg>

<svg width="15" height="16" fill="none" xmlns="http://www.w3.org/2000/svg"><path d="M7.727 0a5.101 5.101 0 0 0-5.09 5.09 5.11 5.11 0 0 0 2.25 4.229C2.291 10.43.453 13.006.453 16H1.91a5.807 5.807 0 0 1 5.818-5.818A5.807 5.807 0 0 1 13.545 16H15c0-2.994-1.838-5.568-4.432-6.682a5.109 5.109 0 0 0 2.25-4.227A5.101 5.101 0 0 0 7.727 0Zm0 1.455a3.626 3.626 0 0 1 3.636 3.636 3.626 3.626 0 0 1-3.636 3.636 3.626 3.626 0 0 1-3.636-3.636 3.626 3.626 0 0 1 3.636-3.636Z" fill="#fff"/></svg>
